icons/linear-ele-food-ice-cream-square.svg

<svg xmlns="http://www.w3.org/2000/svg" width="32px" height="32px" viewBox="0 0 32 32" version="1.1">
    <title>linear-ele-food-ice-cream-square</title>
    <g id="linear-ele-food-ice-cream-square" stroke-width="1" fill-rule="evenodd">
        <path d="M21,2 C22.6568542,2 24,3.34314575 24,5 L24,19 C24,20.6568542 22.6568542,22 21,22 L19,22 L19,27 C19,28.6568542 17.6568542,30 16,30 C14.3431458,30 13,28.6568542 13,27 L13,22 L11,22 C9.34314575,22 8,20.6568542 8,19 L8,5 C8,3.34314575 9.34314575,2 11,2 L21,2 Z M17,22 L15,22 L15,27 C15,27.5522847 15.4477153,28 16,28 C16.5522847,28 17,27.5522847 17,27 L17,22 Z M21,4 L11,4 C10.4477153,4 10,4.44771525 10,5 L10,19 C10,19.5522847 10.4477153,20 11,20 L21,20 C21.5522847,20 22,19.5522847 22,19 L22,5 C22,4.44771525 21.5522847,4 21,4 Z" id="&#24418;&#29366;" fill-rule="nonzero" />
    </g>
</svg>

<svg xmlns="http://www.w3.org/2000/svg" viewBox="0 0 32 32"><path fill="currentColor" d="M21 2a3 3 0 0 1 3 3v14a3 3 0 0 1-3 3h-2v5a3 3 0 0 1-6 0v-5h-2a3 3 0 0 1-3-3V5a3 3 0 0 1 3-3zm-4 20h-2v5a1 1 0 0 0 2 0zm4-18H11a1 1 0 0 0-1 1v14a1 1 0 0 0 1 1h10a1 1 0 0 0 1-1V5a1 1 0 0 0-1-1"/></svg>
